build/img/regular/icon/icon_sound.svg

<svg width="21" height="20" viewBox="0 0 21 20" fill="none" xmlns="http://www.w3.org/2000/svg">
<path d="M11.0737 1.53532L6.84134 5.76767L2.62763 5.76767C2.05586 5.76767 1.56165 5.976 1.145 6.39265C0.728855 6.8088 0.520779 7.30276 0.520778 7.87453L0.520779 12.0882C0.520779 12.66 0.732085 13.1572 1.1547 13.5798C1.57731 14.0024 2.07451 14.2137 2.64628 14.2137L6.82269 14.2137L11.055 18.4461L11.0737 1.53532ZM13.1246 19.2478C15.2998 18.763 17.0773 17.6632 18.457 15.9484C19.8367 14.2326 20.5266 12.256 20.5266 10.0187C20.5266 7.7813 19.8367 5.80521 18.457 4.0904C17.0773 2.37458 15.2998 1.2743 13.1246 0.789536V2.95232C14.7032 3.41222 15.9775 4.29474 16.9475 5.59987C17.9165 6.905 18.4011 8.37793 18.4011 10.0187C18.4011 11.6594 17.9165 13.1323 16.9475 14.4375C15.9775 15.7426 14.7032 16.6251 13.1246 17.085L13.1246 19.2478ZM13.1246 14.8476C14.0444 14.3505 14.8026 13.6792 15.3993 12.834C15.9959 11.9888 16.2942 11.0441 16.2942 10C16.2942 8.95592 15.9956 8.01747 15.3985 7.18467C14.8024 6.35188 14.0444 5.68688 13.1246 5.18969L13.1246 7.72537C13.4354 8.03611 13.6904 8.38415 13.8898 8.76947C14.0882 9.1548 14.1874 9.55877 14.1874 9.98138C14.1874 10.4289 14.0911 10.8482 13.8987 11.2395C13.7058 11.6313 13.4478 11.9888 13.1246 12.312V14.8476Z" fill="black"/>
</svg>

<svg width="21" height="20" fill="none" xmlns="http://www.w3.org/2000/svg"><path d="M11.074 1.535 6.84 5.768H2.628c-.572 0-1.066.208-1.483.625-.416.416-.624.91-.624 1.482v4.213c0 .572.211 1.07.634 1.492.422.422.92.634 1.491.634h4.177l4.232 4.232.019-16.91Zm2.05 17.713c2.176-.485 3.953-1.585 5.333-3.3 1.38-1.715 2.07-3.692 2.07-5.93 0-2.237-.69-4.213-2.07-5.928-1.38-1.715-3.157-2.816-5.332-3.3v2.162c1.578.46 2.852 1.343 3.823 2.648.968 1.305 1.453 2.778 1.453 4.419 0 1.64-.485 3.113-1.453 4.418-.97 1.306-2.245 2.188-3.823 2.648v2.163Zm0-4.4a6.568 6.568 0 0 0 2.275-2.014A4.8 4.8 0 0 0 16.294 10a4.714 4.714 0 0 0-.896-2.815 6.636 6.636 0 0 0-2.273-1.995v2.535c.31.311.565.66.765 1.044.198.386.297.79.297 1.212 0 .448-.096.867-.288 1.258-.193.392-.451.75-.774 1.073v2.536Z" fill="#000"/></svg>
